X:1
T:Thomas Hastings
T:Broughton
%%score { ( 1 2 ) | ( 3 4 ) }
L:1/8
M:6/4
K:Eb
V:1 treble 
V:2 treble 
V:3 bass 
V:4 bass 
V:1
 B4 | B6 B2 A2 G2 | (G4 F4) A4 | A6 A2 G2 F2 | G8 B4 | B6 B2 c2 d2 | (e4 B4) G4 | B2 A2 G4 F4 | %8
 E8 B4 | d6 d2 c2 B2 | (B4 =A4) c4 | c6 c2 B2 =A2 | B8 B4 | B6 B2 c2 d2 | (e4 B4) G4 | %15
 E2 F2 G4 F4 | E8 |] %17
V:2
 G4 | G6 G2 F2 E2 | D8 D4 | F6 F2 E2 D2 | E8 G4 | G6 G2 A2 F2 | G8 E4 | E2 E2 E4 D4 | E8 D4 | %9
 F6 F2 F2 F2 | F8 F4 | F6 F2 F2 F2 | F8 G4 | G6 G2 A2 F2 | G8 E4 | E2 E2 E4 D4 | E8 |] %17
V:3
 B,4 | E6 B,2 B,2 B,2 | B,8 B,4 | D6 B,2 B,2 B,2 | B,8 B,4 | B,6 B,2 B,2 B,2 | B,8 B,4 | %7
 E2 C2 B,4 A,4 | G,8 B,4 | B,6 D2 E2 D2 | (D4 C4) =A,4 | =A,6 E2 D2 C2 | D8 B,4 | B,6 B,2 B,2 B,2 | %14
 B,8 B,4 | B,2 C2 B,4 A,4 | G,8 |] %17
V:4
 E,4 | E,6 E,2 D,2 E,2 | B,,8 B,,4 | B,,6 B,,2 B,,2 B,,2 | E,8 E,4 | E,6 E,2 E,2 E,2 | E,8 E,4 | %7
 G,2 A,2 B,4 B,,4 | E,8 B,,4 | B,6 B,2 =A,2 B,2 | D,8 F,4 | F,6 F,2 F,2 F,2 | B,8 E,4 | %13
 E,6 E,2 E,2 E,2 | E,8 E,4 | G,2 A,2 B,4 B,,4 | E,8 |] %17

